X:324
T:Nine Pound Hammer
C:Alan Bibey
N:Transcribed by Steve Keating
R:bluegrass
L:1/8
Q:1/4=250
M:4/4
K:A
"A"z6 a2 | za za z=g z^d | =g^d ed ed =d=c | (3d^d=d =c=G Ac Ac | "D"AG AG =G=F ^Fd | 
FF dA E=G A=c | "A"ca zB =g2 (3fgf | "E"ef e^d =gd ed | (3"A"d^d=d =cA c^c A=G | 
Ad ee e=g ad' | =c'^c' a=g a2 za | a=g a=c' d'^d' e'e' | (3"D"e'e'e' (3e'e'e' (3^d'e'e' (3e'e'z | 
^d'=d' =c'a ^d'/e'/z c'^c' | "A"a2 ze (3^de=g a=c' | "E"c'/=c'/d' z2 c'b za | 
"A"z^d (3=gag eg ed | z^d/=d/ z=c (3d^d=d c^c | A=G E^D =D=C A,=G, | [^DG,][EA,] z[EA,] [E4A,4] | 
z8 | z8 | z8 | z8 | 


